static/assets/img/icon-github.svg

<?xml version="1.0" encoding="utf-8"?>
<svg width="20px" height="20px" viewBox="0 0 20 20" version="1.1" xmlns:xlink="http://www.w3.org/1999/xlink" xmlns="http://www.w3.org/2000/svg">
  <desc>Created with Lunacy</desc>
  <defs>
    <path d="M9.999 0L10.001 0Q10.2465 0 10.4916 0.0120442Q10.7368 0.0240885 10.9811 0.0481479Q11.2254 0.0722074 11.4682 0.108224Q11.711 0.144241 11.9517 0.192128Q12.1925 0.240015 12.4306 0.299657Q12.6687 0.3593 12.9036 0.430553Q13.1384 0.501807 13.3696 0.584501Q13.6007 0.667194 13.8274 0.761128Q14.0542 0.855062 14.2761 0.960011Q14.498 1.06496 14.7145 1.18067Q14.931 1.29638 15.1415 1.42257Q15.352 1.54876 15.5561 1.68514Q15.7602 1.82151 15.9574 1.96773Q16.1546 2.11395 16.3443 2.26967Q16.534 2.42539 16.7159 2.59023Q16.8978 2.75507 17.0714 2.92864Q17.2449 3.10221 17.4098 3.28408Q17.5746 3.46596 17.7303 3.6557Q17.886 3.84545 18.0323 4.0426Q18.1785 4.23976 18.3149 4.44385Q18.4512 4.64795 18.5774 4.85849Q18.7036 5.06903 18.8193 5.2855Q18.935 5.50198 19.04 5.72388Q19.1449 5.94577 19.2389 6.17255Q19.3328 6.39932 19.4155 6.63044Q19.4982 6.86155 19.5694 7.09644Q19.6407 7.33134 19.7003 7.56944Q19.76 7.80755 19.8079 8.04829Q19.8558 8.28904 19.8918 8.53184Q19.9278 8.77465 19.9519 9.01893Q19.9759 9.26321 19.988 9.50837Q20 9.75354 20 9.999L20 10.001Q20 10.2465 19.988 10.4916Q19.9759 10.7368 19.9519 10.9811Q19.9278 11.2254 19.8918 11.4682Q19.8558 11.711 19.8079 11.9517Q19.76 12.1925 19.7003 12.4306Q19.6407 12.6687 19.5694 12.9036Q19.4982 13.1384 19.4155 13.3696Q19.3328 13.6007 19.2389 13.8274Q19.1449 14.0542 19.04 14.2761Q18.935 14.498 18.8193 14.7145Q18.7036 14.931 18.5774 15.1415Q18.4512 15.352 18.3149 15.5561Q18.1785 15.7602 18.0323 15.9574Q17.886 16.1546 17.7303 16.3443Q17.5746 16.534 17.4098 16.7159Q17.2449 16.8978 17.0714 17.0714Q16.8978 17.2449 16.7159 17.4098Q16.534 17.5746 16.3443 17.7303Q16.1546 17.886 15.9574 18.0323Q15.7602 18.1785 15.5561 18.3149Q15.3521 18.4512 15.1415 18.5774Q14.931 18.7036 14.7145 18.8193Q14.498 18.935 14.2761 19.04Q14.0542 19.1449 13.8274 19.2389Q13.6007 19.3328 13.3696 19.4155Q13.1384 19.4982 12.9036 19.5694Q12.6687 19.6407 12.4306 19.7003Q12.1925 19.76 11.9517 19.8079Q11.711 19.8558 11.4682 19.8918Q11.2254 19.9278 10.9811 19.9519Q10.7368 19.9759 10.4916 19.988Q10.2465 20 10.001 20L9.999 20Q9.75354 20 9.50837 19.988Q9.26321 19.9759 9.01893 19.9519Q8.77465 19.9278 8.53184 19.8918Q8.28904 19.8558 8.04829 19.8079Q7.80755 19.76 7.56944 19.7003Q7.33134 19.6407 7.09644 19.5694Q6.86155 19.4982 6.63044 19.4155Q6.39932 19.3328 6.17255 19.2389Q5.94577 19.1449 5.72388 19.04Q5.50198 18.935 5.2855 18.8193Q5.06903 18.7036 4.85849 18.5774Q4.64795 18.4512 4.44385 18.3149Q4.23976 18.1785 4.0426 18.0323Q3.84545 17.886 3.6557 17.7303Q3.46596 17.5746 3.28408 17.4098Q3.10221 17.2449 2.92864 17.0714Q2.75507 16.8978 2.59023 16.7159Q2.42539 16.534 2.26967 16.3443Q2.11395 16.1546 1.96773 15.9574Q1.82151 15.7602 1.68514 15.5561Q1.54876 15.3521 1.42257 15.1415Q1.29638 14.931 1.18067 14.7145Q1.06496 14.498 0.960011 14.2761Q0.855062 14.0542 0.761128 13.8274Q0.667194 13.6007 0.584501 13.3696Q0.501807 13.1384 0.430553 12.9036Q0.3593 12.6687 0.299657 12.4306Q0.240015 12.1925 0.192128 11.9517Q0.144241 11.711 0.108224 11.4682Q0.0722074 11.2254 0.0481479 10.9811Q0.0240885 10.7368 0.0120442 10.4916Q0 10.2465 0 10.001L0 9.999Q0 9.75354 0.0120442 9.50837Q0.0240885 9.26321 0.0481479 9.01893Q0.0722074 8.77465 0.108224 8.53184Q0.144241 8.28904 0.192128 8.04829Q0.240015 7.80755 0.299657 7.56944Q0.3593 7.33134 0.430553 7.09644Q0.501807 6.86155 0.584501 6.63044Q0.667194 6.39932 0.761128 6.17255Q0.855062 5.94577 0.960011 5.72388Q1.06496 5.50198 1.18067 5.2855Q1.29638 5.06903 1.42257 4.85849Q1.54876 4.64795 1.68514 4.44385Q1.82151 4.23976 1.96773 4.0426Q2.11395 3.84545 2.26967 3.6557Q2.42539 3.46596 2.59023 3.28408Q2.75507 3.10221 2.92864 2.92864Q3.10221 2.75507 3.28408 2.59023Q3.46596 2.42539 3.6557 2.26967Q3.84545 2.11395 4.0426 1.96773Q4.23976 1.82151 4.44385 1.68514Q4.64795 1.54876 4.85849 1.42257Q5.06903 1.29638 5.2855 1.18067Q5.50198 1.06496 5.72388 0.960011Q5.94577 0.855062 6.17255 0.761128Q6.39932 0.667194 6.63044 0.584501Q6.86155 0.501807 7.09644 0.430553Q7.33134 0.3593 7.56944 0.299657Q7.80755 0.240015 8.04829 0.192128Q8.28904 0.144241 8.53184 0.108224Q8.77465 0.0722074 9.01893 0.0481479Q9.26321 0.0240885 9.50837 0.0120442Q9.75354 0 9.999 0Z" id="path_1" />
    <clipPath id="mask_1">
      <use xlink:href="#path_1" />
    </clipPath>
  </defs>
  <g id="icon-github">
    <path d="M9.999 0L10.001 0Q10.2465 0 10.4916 0.0120442Q10.7368 0.0240885 10.9811 0.0481479Q11.2254 0.0722074 11.4682 0.108224Q11.711 0.144241 11.9517 0.192128Q12.1925 0.240015 12.4306 0.299657Q12.6687 0.3593 12.9036 0.430553Q13.1384 0.501807 13.3696 0.584501Q13.6007 0.667194 13.8274 0.761128Q14.0542 0.855062 14.2761 0.960011Q14.498 1.06496 14.7145 1.18067Q14.931 1.29638 15.1415 1.42257Q15.352 1.54876 15.5561 1.68514Q15.7602 1.82151 15.9574 1.96773Q16.1546 2.11395 16.3443 2.26967Q16.534 2.42539 16.7159 2.59023Q16.8978 2.75507 17.0714 2.92864Q17.2449 3.10221 17.4098 3.28408Q17.5746 3.46596 17.7303 3.6557Q17.886 3.84545 18.0323 4.0426Q18.1785 4.23976 18.3149 4.44385Q18.4512 4.64795 18.5774 4.85849Q18.7036 5.06903 18.8193 5.2855Q18.935 5.50198 19.04 5.72388Q19.1449 5.94577 19.2389 6.17255Q19.3328 6.39932 19.4155 6.63044Q19.4982 6.86155 19.5694 7.09644Q19.6407 7.33134 19.7003 7.56944Q19.76 7.80755 19.8079 8.04829Q19.8558 8.28904 19.8918 8.53184Q19.9278 8.77465 19.9519 9.01893Q19.9759 9.26321 19.988 9.50837Q20 9.75354 20 9.999L20 10.001Q20 10.2465 19.988 10.4916Q19.9759 10.7368 19.9519 10.9811Q19.9278 11.2254 19.8918 11.4682Q19.8558 11.711 19.8079 11.9517Q19.76 12.1925 19.7003 12.4306Q19.6407 12.6687 19.5694 12.9036Q19.4982 13.1384 19.4155 13.3696Q19.3328 13.6007 19.2389 13.8274Q19.1449 14.0542 19.04 14.2761Q18.935 14.498 18.8193 14.7145Q18.7036 14.931 18.5774 15.1415Q18.4512 15.352 18.3149 15.5561Q18.1785 15.7602 18.0323 15.9574Q17.886 16.1546 17.7303 16.3443Q17.5746 16.534 17.4098 16.7159Q17.2449 16.8978 17.0714 17.0714Q16.8978 17.2449 16.7159 17.4098Q16.534 17.5746 16.3443 17.7303Q16.1546 17.886 15.9574 18.0323Q15.7602 18.1785 15.5561 18.3149Q15.3521 18.4512 15.1415 18.5774Q14.931 18.7036 14.7145 18.8193Q14.498 18.935 14.2761 19.04Q14.0542 19.1449 13.8274 19.2389Q13.6007 19.3328 13.3696 19.4155Q13.1384 19.4982 12.9036 19.5694Q12.6687 19.6407 12.4306 19.7003Q12.1925 19.76 11.9517 19.8079Q11.711 19.8558 11.4682 19.8918Q11.2254 19.9278 10.9811 19.9519Q10.7368 19.9759 10.4916 19.988Q10.2465 20 10.001 20L9.999 20Q9.75354 20 9.50837 19.988Q9.26321 19.9759 9.01893 19.9519Q8.77465 19.9278 8.53184 19.8918Q8.28904 19.8558 8.04829 19.8079Q7.80755 19.76 7.56944 19.7003Q7.33134 19.6407 7.09644 19.5694Q6.86155 19.4982 6.63044 19.4155Q6.39932 19.3328 6.17255 19.2389Q5.94577 19.1449 5.72388 19.04Q5.50198 18.935 5.2855 18.8193Q5.06903 18.7036 4.85849 18.5774Q4.64795 18.4512 4.44385 18.3149Q4.23976 18.1785 4.0426 18.0323Q3.84545 17.886 3.6557 17.7303Q3.46596 17.5746 3.28408 17.4098Q3.10221 17.2449 2.92864 17.0714Q2.75507 16.8978 2.59023 16.7159Q2.42539 16.534 2.26967 16.3443Q2.11395 16.1546 1.96773 15.9574Q1.82151 15.7602 1.68514 15.5561Q1.54876 15.3521 1.42257 15.1415Q1.29638 14.931 1.18067 14.7145Q1.06496 14.498 0.960011 14.2761Q0.855062 14.0542 0.761128 13.8274Q0.667194 13.6007 0.584501 13.3696Q0.501807 13.1384 0.430553 12.9036Q0.3593 12.6687 0.299657 12.4306Q0.240015 12.1925 0.192128 11.9517Q0.144241 11.711 0.108224 11.4682Q0.0722074 11.2254 0.0481479 10.9811Q0.0240885 10.7368 0.0120442 10.4916Q0 10.2465 0 10.001L0 9.999Q0 9.75354 0.0120442 9.50837Q0.0240885 9.26321 0.0481479 9.01893Q0.0722074 8.77465 0.108224 8.53184Q0.144241 8.28904 0.192128 8.04829Q0.240015 7.80755 0.299657 7.56944Q0.3593 7.33134 0.430553 7.09644Q0.501807 6.86155 0.584501 6.63044Q0.667194 6.39932 0.761128 6.17255Q0.855062 5.94577 0.960011 5.72388Q1.06496 5.50198 1.18067 5.2855Q1.29638 5.06903 1.42257 4.85849Q1.54876 4.64795 1.68514 4.44385Q1.82151 4.23976 1.96773 4.0426Q2.11395 3.84545 2.26967 3.6557Q2.42539 3.46596 2.59023 3.28408Q2.75507 3.10221 2.92864 2.92864Q3.10221 2.75507 3.28408 2.59023Q3.46596 2.42539 3.6557 2.26967Q3.84545 2.11395 4.0426 1.96773Q4.23976 1.82151 4.44385 1.68514Q4.64795 1.54876 4.85849 1.42257Q5.06903 1.29638 5.2855 1.18067Q5.50198 1.06496 5.72388 0.960011Q5.94577 0.855062 6.17255 0.761128Q6.39932 0.667194 6.63044 0.584501Q6.86155 0.501807 7.09644 0.430553Q7.33134 0.3593 7.56944 0.299657Q7.80755 0.240015 8.04829 0.192128Q8.28904 0.144241 8.53184 0.108224Q8.77465 0.0722074 9.01893 0.0481479Q9.26321 0.0240885 9.50837 0.0120442Q9.75354 0 9.999 0Z" id="Background" fill="#000000" fill-rule="evenodd" stroke="none" />
    <g clip-path="url(#mask_1)">
      <path d="M8.85948 0.0692163C4.25948 0.569216 0.559482 4.26922 0.0594816 8.76922C-0.440518 13.4692 2.25948 17.6692 6.35948 19.2692C6.65948 19.3692 6.95948 19.1692 6.95948 18.7692L6.95948 17.1692C6.95948 17.1692 6.55948 17.2692 6.05948 17.2692C4.65948 17.2692 4.05948 16.0692 3.95948 15.3692C3.85948 14.9692 3.65948 14.6692 3.35948 14.3692C3.05948 14.2692 2.95948 14.2692 2.95948 14.1692C2.95948 13.9692 3.25948 13.9692 3.35948 13.9692C3.95948 13.9692 4.45948 14.6692 4.65948 14.9692C5.15948 15.7692 5.75948 15.9692 6.05948 15.9692C6.45948 15.9692 6.75948 15.8692 6.95948 15.7692C7.05948 15.0692 7.35948 14.3692 7.95948 13.9692C5.65948 13.4692 3.95948 12.1692 3.95948 9.96922C3.95948 8.86922 4.45948 7.76922 5.15948 6.96922C5.05948 6.76922 4.95948 6.26922 4.95948 5.56922C4.95948 5.16922 4.95948 4.66922 5.15948 4.26922C5.15948 4.06922 5.35948 3.96922 5.45948 3.96922C5.45948 3.96922 5.55948 3.96922 5.55948 3.96922C6.05948 4.06922 7.05948 4.36922 7.95948 5.26922C8.55948 5.06922 9.25948 4.96922 9.95948 4.96922C10.6595 4.96922 11.3595 5.06922 11.9595 5.26922C12.8595 4.36922 13.9595 4.06922 14.4595 3.96922C14.4595 3.96922 14.5595 3.96922 14.5595 3.96922C14.7595 3.96922 14.8595 4.06922 14.9595 4.26922C14.9595 4.66922 14.9595 5.16922 14.9595 5.56922C14.9595 6.36922 14.8595 6.76922 14.7595 6.96922C15.4595 7.76922 15.9595 8.76922 15.9595 9.96922C15.9595 12.1692 14.2595 13.4692 11.9595 13.9692C12.5595 14.4692 12.9595 15.3692 12.9595 16.2692L12.9595 18.8692C12.9595 19.1692 13.2595 19.4692 13.6595 19.3692C17.3595 17.8692 19.9595 14.2692 19.9595 10.0692C19.9595 4.06922 14.8595 -0.630784 8.85948 0.0692163L8.85948 0.0692163Z" transform="translate(0.040527344 0.030776978)" id="Shape" fill="#FFFFFF" fill-rule="evenodd" stroke="none" />
    </g>
  </g>
</svg>

<svg width="20" height="20" xmlns:xlink="http://www.w3.org/1999/xlink" xmlns="http://www.w3.org/2000/svg"><defs><clipPath id="mask_1"><use xlink:href="#path_1"/></clipPath><path d="M9.999 0h.002q.245 0 .49.012.246.012.49.036.244.024.487.06t.484.084q.24.048.479.108.238.06.473.13.234.072.466.155.23.082.457.176.227.094.45.199.221.105.438.22.216.116.427.243.21.126.414.262.204.137.401.283.198.146.387.302.19.155.372.32t.355.339q.174.173.339.355.165.182.32.372.156.19.302.387t.283.4q.136.205.262.415.127.211.242.428.116.216.221.438t.199.449q.094.226.177.457.082.232.153.466.072.235.131.473.06.239.108.48.048.24.084.483.036.243.06.487t.036.49q.012.245.012.49v.002q0 .245-.012.49-.012.246-.036.49-.024.244-.06.487t-.084.484q-.048.24-.108.479-.06.238-.13.473-.072.234-.154.466-.083.23-.177.457-.094.227-.199.45-.105.221-.22.438-.116.216-.243.427-.126.21-.262.414-.137.204-.283.401-.146.198-.302.387-.155.19-.32.372t-.339.355q-.173.174-.355.339-.182.165-.372.32-.19.156-.387.302t-.4.283q-.205.136-.415.262-.211.127-.428.242-.216.116-.438.221t-.449.199q-.226.094-.457.177-.232.082-.466.153-.235.072-.473.131-.238.06-.48.108-.24.048-.483.084-.243.036-.487.06t-.49.036q-.245.012-.49.012h-.002q-.245 0-.49-.012-.246-.012-.49-.036-.244-.024-.487-.06t-.484-.084q-.24-.048-.479-.108-.238-.06-.473-.13-.234-.072-.466-.154-.23-.083-.457-.177-.227-.094-.45-.199-.221-.105-.438-.22-.216-.116-.427-.243-.21-.126-.414-.262-.204-.137-.401-.283-.198-.146-.387-.302-.19-.155-.372-.32t-.355-.339q-.174-.173-.339-.355-.165-.182-.32-.372-.156-.19-.302-.387t-.283-.4q-.136-.205-.262-.415-.127-.211-.242-.428-.116-.216-.221-.438t-.199-.449q-.094-.226-.176-.457-.083-.232-.154-.466-.072-.235-.131-.473-.06-.238-.108-.48-.048-.24-.084-.483-.036-.243-.06-.487t-.036-.49Q0 10.247 0 10.002V10q0-.245.012-.49.012-.246.036-.49.024-.244.06-.487t.084-.484Q.24 7.808.3 7.57t.13-.473q.072-.234.155-.466.082-.23.176-.457.094-.227.199-.45.105-.221.22-.438.116-.216.243-.427.126-.21.262-.414.137-.204.283-.401.146-.198.302-.387.155-.19.32-.372t.339-.355q.173-.174.355-.339.182-.165.372-.32.19-.156.387-.302t.4-.283q.205-.136.415-.262.211-.127.428-.242.216-.116.438-.221t.449-.199q.226-.094.457-.176.232-.083.466-.154Q7.331.359 7.57.3q.239-.06.48-.108.24-.048.483-.084.243-.036.487-.06t.49-.036Q9.753 0 9.998 0z" id="path_1"/></defs><g id="icon-github"><path d="M9.999 0h.002q.245 0 .49.012.246.012.49.036.244.024.487.06t.484.084q.24.048.479.108.238.06.473.13.234.072.466.155.23.082.457.176.227.094.45.199.221.105.438.22.216.116.427.243.21.126.414.262.204.137.401.283.198.146.387.302.19.155.372.32t.355.339q.174.173.339.355.165.182.32.372.156.19.302.387t.283.4q.136.205.262.415.127.211.242.428.116.216.221.438t.199.449q.094.226.177.457.082.232.153.466.072.235.131.473.06.239.108.48.048.24.084.483.036.243.06.487t.036.49q.012.245.012.49v.002q0 .245-.012.49-.012.246-.036.49-.024.244-.06.487t-.084.484q-.048.24-.108.479-.06.238-.13.473-.072.234-.154.466-.083.23-.177.457-.094.227-.199.45-.105.221-.22.438-.116.216-.243.427-.126.21-.262.414-.137.204-.283.401-.146.198-.302.387-.155.19-.32.372t-.339.355q-.173.174-.355.339-.182.165-.372.32-.19.156-.387.302t-.4.283q-.205.136-.415.262-.211.127-.428.242-.216.116-.438.221t-.449.199q-.226.094-.457.177-.232.082-.466.153-.235.072-.473.131-.238.06-.48.108-.24.048-.483.084-.243.036-.487.06t-.49.036q-.245.012-.49.012h-.002q-.245 0-.49-.012-.246-.012-.49-.036-.244-.024-.487-.06t-.484-.084q-.24-.048-.479-.108-.238-.06-.473-.13-.234-.072-.466-.154-.23-.083-.457-.177-.227-.094-.45-.199-.221-.105-.438-.22-.216-.116-.427-.243-.21-.126-.414-.262-.204-.137-.401-.283-.198-.146-.387-.302-.19-.155-.372-.32t-.355-.339q-.174-.173-.339-.355-.165-.182-.32-.372-.156-.19-.302-.387t-.283-.4q-.136-.205-.262-.415-.127-.211-.242-.428-.116-.216-.221-.438t-.199-.449q-.094-.226-.176-.457-.083-.232-.154-.466-.072-.235-.131-.473-.06-.238-.108-.48-.048-.24-.084-.483-.036-.243-.06-.487t-.036-.49Q0 10.247 0 10.002V10q0-.245.012-.49.012-.246.036-.49.024-.244.06-.487t.084-.484Q.24 7.808.3 7.57t.13-.473q.072-.234.155-.466.082-.23.176-.457.094-.227.199-.45.105-.221.22-.438.116-.216.243-.427.126-.21.262-.414.137-.204.283-.401.146-.198.302-.387.155-.19.32-.372t.339-.355q.173-.174.355-.339.182-.165.372-.32.19-.156.387-.302t.4-.283q.205-.136.415-.262.211-.127.428-.242.216-.116.438-.221t.449-.199q.226-.094.457-.176.232-.083.466-.154Q7.331.359 7.57.3q.239-.06.48-.108.24-.048.483-.084.243-.036.487-.06t.49-.036Q9.753 0 9.998 0z" id="Background" fill="#000" fill-rule="evenodd" stroke="none"/><g clip-path="url(#mask_1)"><path d="M8.86.07c-4.6.5-8.3 4.2-8.8 8.7-.5 4.7 2.2 8.9 6.3 10.5.3.1.6-.1.6-.5v-1.6s-.4.1-.9.1c-1.4 0-2-1.2-2.1-1.9-.1-.4-.3-.7-.6-1-.3-.1-.4-.1-.4-.2 0-.2.3-.2.4-.2.6 0 1.1.7 1.3 1 .5.8 1.1 1 1.4 1 .4 0 .7-.1.9-.2.1-.7.4-1.4 1-1.8-2.3-.5-4-1.8-4-4 0-1.1.5-2.2 1.2-3-.1-.2-.2-.7-.2-1.4 0-.4 0-.9.2-1.3 0-.2.2-.3.3-.3h.1c.5.1 1.5.4 2.4 1.3.6-.2 1.3-.3 2-.3s1.4.1 2 .3c.9-.9 2-1.2 2.5-1.3h.1c.2 0 .3.1.4.3v1.3c0 .8-.1 1.2-.2 1.4.7.8 1.2 1.8 1.2 3 0 2.2-1.7 3.5-4 4 .6.5 1 1.4 1 2.3v2.6c0 .3.3.6.7.5 3.7-1.5 6.3-5.1 6.3-9.3 0-6-5.1-10.7-11.1-10z" transform="translate(.04 .03)" id="Shape" fill="#FFF" fill-rule="evenodd" stroke="none"/></g></g></svg>
